assets/img/logos/vegalite.svg

<svg width="123" height="24" viewBox="0 0 123 24" fill="none" xmlns="http://www.w3.org/2000/svg">
<path d="M121.157 1.98395H90.955V20.8984H121.157V1.98395Z" fill="#38AF3A"/>
<path d="M100.193 4.96142L98.1036 13.8153C98.0279 14.1428 97.9904 14.3597 97.9904 14.4655C97.9904 14.6126 98.0258 14.7258 98.0967 14.8056C98.1676 14.8855 98.2618 14.9257 98.3787 14.9257C98.5295 14.9257 98.6654 14.8802 98.7866 14.7892C98.9786 14.6453 99.2193 14.384 99.5076 14.0052L99.9748 14.4009C99.341 15.2204 98.6913 15.6299 98.0263 15.6299C97.6692 15.6299 97.3836 15.5225 97.1693 15.3066C96.9551 15.0913 96.8477 14.8205 96.8477 14.4946C96.8477 14.2787 96.8752 14.0534 96.9312 13.8179L98.7384 6.16867H97.0921L97.237 5.56503C97.7899 5.48832 98.2284 5.40687 98.5538 5.32064C98.8786 5.23441 99.2183 5.11484 99.5727 4.96142H100.193Z" fill="white"/>
<path d="M103.327 4.9613C103.533 4.9613 103.704 5.02953 103.841 5.16602C103.978 5.30251 104.046 5.48133 104.046 5.7014C104.046 5.95058 103.958 6.16537 103.783 6.34472C103.608 6.52459 103.406 6.61453 103.176 6.61453C102.965 6.61453 102.785 6.54151 102.637 6.3955C102.488 6.24896 102.414 6.07278 102.414 5.86699C102.414 5.62257 102.505 5.41044 102.687 5.23057C102.869 5.0507 103.082 4.9613 103.327 4.9613ZM103.462 8.39736L102.182 13.9993C102.124 14.2056 102.095 14.3675 102.095 14.486C102.095 14.6267 102.13 14.7373 102.199 14.8182C102.268 14.8992 102.355 14.9399 102.458 14.9399C102.579 14.9399 102.695 14.8918 102.806 14.796C102.979 14.6521 103.198 14.3913 103.463 14.0125L103.924 14.4151C103.668 14.7987 103.374 15.097 103.041 15.3102C102.708 15.5229 102.393 15.6298 102.096 15.6298C101.774 15.6298 101.503 15.516 101.284 15.2885C101.066 15.0611 100.956 14.796 100.956 14.4945C100.956 14.2834 100.997 14.0173 101.079 13.6961L102.016 9.56969H100.387L100.528 8.96554C100.928 8.9465 101.295 8.89677 101.629 8.81635C101.962 8.73594 102.368 8.59628 102.847 8.39736H103.462Z" fill="white"/>
<path d="M108.055 6.14013L107.508 8.56999H109.079L108.941 9.30375H107.342L106.394 13.5106C106.309 13.8836 106.268 14.1476 106.268 14.3015C106.268 14.4872 106.316 14.6338 106.412 14.7422C106.508 14.8496 106.633 14.9041 106.784 14.9041C106.895 14.9041 107.005 14.8803 107.116 14.8321C107.263 14.7649 107.411 14.6644 107.558 14.5301C107.636 14.4586 107.827 14.2375 108.13 13.8688L108.612 14.2714C108.187 14.8178 107.812 15.1892 107.485 15.3855C107.16 15.5823 106.824 15.6802 106.478 15.6802C106.084 15.6802 105.759 15.5521 105.503 15.2961C105.247 15.0395 105.119 14.7364 105.119 14.3862C105.119 14.1613 105.15 13.9143 105.213 13.646L106.197 9.30375H104.543L104.689 8.74985C105.171 8.63981 105.562 8.4938 105.862 8.31128C106.163 8.1293 106.45 7.8669 106.723 7.52409C106.997 7.18128 107.261 6.72048 107.515 6.14013H108.055Z" fill="white"/>
<path d="M111.271 11.9278C112.359 11.8077 113.148 11.6897 113.636 11.5744C114.423 11.3871 114.96 11.1601 115.247 10.8935C115.535 10.6269 115.679 10.3348 115.679 10.0174C115.679 9.74866 115.572 9.52276 115.358 9.34025C115.145 9.15773 114.842 9.06621 114.449 9.06621C114.037 9.06621 113.6 9.18895 113.14 9.43389C112.681 9.67883 112.29 10.0126 111.968 10.4359C111.647 10.8586 111.415 11.3559 111.271 11.9278ZM115.995 13.6101L116.397 14.0703C115.793 14.6047 115.165 15.0067 114.514 15.276C113.862 15.5458 113.224 15.6802 112.601 15.6802C111.763 15.6802 111.087 15.4231 110.574 14.9078C110.061 14.3925 109.805 13.7079 109.805 12.8551C109.805 12.0928 110.017 11.368 110.441 10.6803C110.865 9.99255 111.457 9.44024 112.217 9.02336C112.976 8.60595 113.79 8.39752 114.657 8.39752C115.347 8.39752 115.887 8.5557 116.275 8.87259C116.663 9.18842 116.857 9.56245 116.857 9.99361C116.857 10.2481 116.772 10.5152 116.602 10.7951C116.432 11.0755 116.146 11.3358 115.743 11.5754C115.34 11.8151 114.758 12.014 113.996 12.1722C113.234 12.3303 112.297 12.4377 111.185 12.4954C111.161 12.6827 111.149 12.8239 111.149 12.9197C111.149 13.2985 111.229 13.6365 111.39 13.9333C111.55 14.2306 111.778 14.4666 112.073 14.6417C112.368 14.8168 112.676 14.9041 112.996 14.9041C113.404 14.9041 113.88 14.7941 114.424 14.5734C114.968 14.3528 115.491 14.0317 115.995 13.6101Z" fill="white"/>
<path d="M49.5914 9.70304H55.5654V7.38746H49.5914V4.59364H56.3552V2.20452H46.6328V15.0701H56.5943V12.6804H49.5914V9.70304Z" fill="#100F0D"/>
<path d="M38.0513 11.3936L34.1365 2.20428H30.9199L36.4704 15.0698H39.4113L44.9806 2.20428H42.0211L38.0513 11.3936Z" fill="#100F0D"/>
<path d="M63.0202 5.0347C63.6567 4.69189 64.3867 4.51995 65.2078 4.51995C66.506 4.51995 67.6154 5.00456 68.5338 5.97216L70.4457 4.20731C69.8204 3.48466 69.0491 2.9334 68.1302 2.55303C67.2112 2.17371 66.187 1.98378 65.0602 1.98378C63.7122 1.98378 62.4991 2.2684 61.4215 2.8387C60.3433 3.40794 59.5011 4.19832 58.8943 5.2093C58.2875 6.21975 57.9844 7.36245 57.9844 8.63689C57.9844 9.91186 58.2875 11.054 58.8943 12.065C59.5011 13.076 60.337 13.8664 61.403 14.4356C62.469 15.0059 63.6694 15.2905 65.0052 15.2905C65.9363 15.2905 66.8615 15.1493 67.7805 14.8678C68.6999 14.5859 69.5083 14.1817 70.2066 13.6542V8.43481H67.4863V12.2026C66.8002 12.5703 66.0283 12.7538 65.1708 12.7538C64.3619 12.7538 63.6418 12.5798 63.0112 12.2301C62.3801 11.8809 61.887 11.3942 61.5315 10.7694C61.176 10.1446 60.9988 9.43361 60.9988 8.63689C60.9988 7.828 61.176 7.11118 61.5315 6.48639C61.887 5.8616 62.3833 5.37751 63.0202 5.0347Z" fill="#100F0D"/>
<path d="M76.8682 9.72819L78.7743 5.12667L80.228 8.63679L80.6529 9.64936C79.4551 10.1974 78.0807 10.2313 76.8682 9.72819ZM77.3221 2.20376L71.5879 15.0698H74.6388L75.7784 12.313H75.8L75.8969 12.0813C76.7851 12.4601 77.7342 12.6548 78.6854 12.6548C79.6969 12.6548 80.7052 12.4321 81.6416 12.0036L82.9293 15.0698H86.0157L80.2624 2.20376H77.3221Z" fill="#100F0D"/>
<path d="M18.6284 15.3485C17.1693 15.3432 15.9056 14.5185 15.2687 13.3123C15.2623 13.3007 15.2538 13.2895 15.2474 13.2779H15.2438L8.9054 2.21955H1.98438L11.8279 19.3745C13.149 21.6816 16.4726 21.6943 17.8107 19.3962L20.4257 14.9063C19.8894 15.1904 19.2777 15.3512 18.6284 15.3485Z" fill="#38AF3A"/>
<path d="M21.7932 2.21932H15.8183L18.6959 7.25887L18.6978 7.25569C19.2651 8.37777 20.4239 9.1507 21.7676 9.15599C23.6759 9.16233 25.2285 7.6218 25.2357 5.71305C25.2429 3.80483 23.7015 2.2262 21.7932 2.21932Z" fill="#38AF3A"/>
</svg>

<svg width="123" height="24" fill="none" xmlns="http://www.w3.org/2000/svg"><path d="M121.157 1.984H90.955v18.914h30.202V1.984z" fill="#38AF3A"/><path d="M100.193 4.961l-2.09 8.854c-.075.328-.113.545-.113.65 0 .148.036.26.107.34.07.08.165.12.282.12.15 0 .286-.045.408-.136.192-.144.432-.405.72-.784l.468.396c-.634.82-1.284 1.229-1.949 1.229-.357 0-.642-.107-.857-.323a1.105 1.105 0 01-.321-.812c0-.216.027-.442.083-.677l1.807-7.65h-1.646l.145-.603a11.58 11.58 0 001.317-.244 7.27 7.27 0 001.019-.36h.62zM103.327 4.961a.698.698 0 01.719.74.89.89 0 01-.263.644.822.822 0 01-.607.27.74.74 0 01-.539-.22.714.714 0 01-.223-.528c0-.244.091-.457.273-.636a.88.88 0 01.64-.27zm.135 3.436L102.182 14a1.923 1.923 0 00-.087.487c0 .14.035.251.104.332a.327.327 0 00.259.122.528.528 0 00.348-.144c.173-.144.392-.405.657-.784l.461.403c-.256.384-.55.682-.883.895-.333.213-.648.32-.945.32-.322 0-.593-.114-.812-.341a1.114 1.114 0 01-.328-.794c0-.212.041-.478.123-.799l.937-4.126h-1.629l.141-.604a5.91 5.91 0 001.101-.15c.333-.08.739-.22 1.218-.419h.615zM108.055 6.14l-.547 2.43h1.571l-.138.734h-1.599l-.948 4.207c-.085.373-.126.637-.126.79 0 .186.048.333.144.441a.478.478 0 00.372.162.825.825 0 00.332-.072 1.73 1.73 0 00.442-.302c.078-.071.269-.292.572-.661l.482.402c-.425.547-.8.918-1.127 1.114a1.92 1.92 0 01-1.007.295c-.394 0-.719-.128-.975-.384a1.245 1.245 0 01-.384-.91c0-.225.031-.472.094-.74l.984-4.342h-1.654l.146-.554c.482-.11.873-.256 1.173-.439.301-.182.588-.444.861-.787.274-.343.538-.804.792-1.384h.54zM111.271 11.928c1.088-.12 1.877-.238 2.365-.354.787-.187 1.324-.414 1.611-.68.288-.267.432-.56.432-.877a.856.856 0 00-.321-.677c-.213-.182-.516-.274-.909-.274-.412 0-.849.123-1.309.368a3.57 3.57 0 00-1.172 1.002c-.321.423-.553.92-.697 1.492zm4.724 1.682l.402.46c-.604.535-1.232.937-1.883 1.206-.652.27-1.29.404-1.913.404-.838 0-1.514-.257-2.027-.772-.513-.515-.769-1.2-.769-2.053 0-.762.212-1.487.636-2.175.424-.687 1.016-1.24 1.776-1.657a4.986 4.986 0 012.44-.625c.69 0 1.23.158 1.618.475.388.315.582.69.582 1.12 0 .255-.085.522-.255.802-.17.28-.456.54-.859.78-.403.24-.985.439-1.747.597-.762.158-1.699.266-2.811.323a3.638 3.638 0 00-.036.425c0 .379.08.716.241 1.013.16.298.388.534.683.709.295.175.603.262.923.262.408 0 .884-.11 1.428-.33a5.919 5.919 0 001.571-.964z" fill="#fff"/><path d="M49.591 9.703h5.974V7.387h-5.974V4.594h6.764v-2.39h-9.722V15.07h9.961v-2.39h-7.003V9.703zM38.051 11.394l-3.915-9.19H30.92l5.55 12.866h2.941l5.57-12.866h-2.96l-3.97 9.19zM63.02 5.035c.637-.343 1.367-.515 2.188-.515 1.298 0 2.407.485 3.326 1.452l1.912-1.765a6.093 6.093 0 00-2.316-1.654c-.919-.38-1.943-.57-3.07-.57-1.348 0-2.56.285-3.639.856a6.328 6.328 0 00-2.527 2.37c-.606 1.01-.91 2.153-.91 3.428s.303 2.417.91 3.428a6.358 6.358 0 002.509 2.37c1.066.57 2.266.855 3.602.855a9.43 9.43 0 002.776-.422 7.755 7.755 0 002.426-1.214v-5.22h-2.72v3.769c-.687.367-1.459.55-2.316.55-.81 0-1.53-.173-2.16-.523a3.77 3.77 0 01-1.48-1.46C61.177 10.144 61 9.433 61 8.636c0-.809.177-1.526.532-2.15a3.693 3.693 0 011.49-1.452zM76.868 9.728l1.906-4.601 1.454 3.51.425 1.012a4.741 4.741 0 01-3.785.08zm.454-7.524L71.588 15.07h3.05l1.14-2.757h.022l.097-.232a7.112 7.112 0 002.788.574c1.012 0 2.02-.223 2.957-.651l1.287 3.066h3.087L80.262 2.204h-2.94z" fill="#100F0D"/><path d="M18.628 15.348a3.812 3.812 0 01-3.36-2.036l-.02-.034h-.004L8.905 2.22h-6.92l9.843 17.154c1.321 2.308 4.645 2.32 5.983.022l2.615-4.49a3.794 3.794 0 01-1.798.442zM21.793 2.22h-5.975l2.878 5.039.002-.003a3.453 3.453 0 006.538-1.543c.007-1.908-1.535-3.487-3.443-3.494z" fill="#38AF3A"/></svg>
